Icons/icons/instagram.svg

<svg width="24" height="24" viewBox="0 0 24 24" fill="none" xmlns="http://www.w3.org/2000/svg">
<path fill-rule="evenodd" clip-rule="evenodd" d="M6.99999 3C4.79085 3 2.99999 4.79086 2.99999 7V17C2.99999 19.2091 4.79085 21 6.99999 21H17C19.2091 21 21 19.2091 21 17V7C21 4.79086 19.2091 3 17 3H6.99999ZM0.999992 7C0.999992 3.68629 3.68628 1 6.99999 1H17C20.3137 1 23 3.68629 23 7V17C23 20.3137 20.3137 23 17 23H6.99999C3.68628 23 0.999992 20.3137 0.999992 17V7Z" fill="#69B99D"/>
<path fill-rule="evenodd" clip-rule="evenodd" d="M12.4833 8.98924C11.8591 8.89668 11.2217 9.0033 10.6616 9.29392C10.1015 9.58455 9.64725 10.0444 9.36356 10.608C9.07986 11.1717 8.98112 11.8104 9.08137 12.4334C9.18161 13.0564 9.47575 13.6319 9.92194 14.0781C10.3681 14.5243 10.9437 14.8184 11.5667 14.9187C12.1896 15.0189 12.8284 14.9202 13.392 14.6365C13.9557 14.3528 14.4155 13.8986 14.7061 13.3385C14.9968 12.7784 15.1034 12.1409 15.0108 11.5167C14.9164 10.88 14.6197 10.2906 14.1646 9.83547C13.7095 9.38034 13.12 9.08366 12.4833 8.98924ZM9.74041 7.51868C10.6739 7.0343 11.7364 6.85661 12.7767 7.01087C13.8378 7.16823 14.8202 7.6627 15.5788 8.42126C16.3374 9.17981 16.8318 10.1622 16.9892 11.2234C17.1434 12.2637 16.9658 13.3261 16.4814 14.2596C15.997 15.1931 15.2306 15.9501 14.2912 16.423C13.3518 16.8958 12.2872 17.0604 11.2489 16.8933C10.2106 16.7262 9.25138 16.236 8.50773 15.4923C7.76408 14.7487 7.27385 13.7895 7.10677 12.7511C6.93969 11.7128 7.10426 10.6482 7.57709 9.70884C8.04992 8.76944 8.80691 8.00305 9.74041 7.51868Z" fill="#69B99D"/>
<path fill-rule="evenodd" clip-rule="evenodd" d="M16.5 6.5C16.5 5.94772 16.9477 5.5 17.5 5.5H17.51C18.0623 5.5 18.51 5.94772 18.51 6.5C18.51 7.05228 18.0623 7.5 17.51 7.5H17.5C16.9477 7.5 16.5 7.05228 16.5 6.5Z" fill="#69B99D"/>
</svg>

<!-- Generated by IcoMoon.io -->
<svg version="1.1" xmlns="http://www.w3.org/2000/svg" width="24" height="24" viewBox="0 0 24 24">
<title>instagram</title>
<path d="M7 3c-2.209 0-4 1.791-4 4v10c0 2.209 1.791 4 4 4h10c2.209 0 4-1.791 4-4v-10c0-2.209-1.791-4-4-4h-10zM1 7c0-3.314 2.686-6 6-6h10c3.314 0 6 2.686 6 6v10c0 3.314-2.686 6-6 6h-10c-3.314 0-6-2.686-6-6v-10z"></path>
<path d="M12.483 8.989c-0.624-0.093-1.262 0.014-1.822 0.305s-1.014 0.75-1.298 1.314c-0.284 0.564-0.382 1.202-0.282 1.825s0.394 1.198 0.841 1.645c0.446 0.446 1.022 0.74 1.645 0.841s1.262 0.001 1.825-0.282c0.564-0.284 1.023-0.738 1.314-1.298s0.397-1.198 0.305-1.822c-0.094-0.637-0.391-1.226-0.846-1.681s-1.045-0.752-1.681-0.846zM9.74 7.519c0.933-0.484 1.996-0.662 3.036-0.508 1.061 0.157 2.043 0.652 2.802 1.41s1.253 1.741 1.41 2.802c0.154 1.040-0.023 2.103-0.508 3.036s-1.251 1.691-2.19 2.163c-0.939 0.473-2.004 0.637-3.042 0.47s-1.998-0.657-2.741-1.401c-0.744-0.744-1.234-1.703-1.401-2.741s-0.003-2.103 0.47-3.042c0.473-0.939 1.23-1.706 2.163-2.19z"></path>
<path d="M16.5 6.5c0-0.552 0.448-1 1-1h0.010c0.552 0 1 0.448 1 1s-0.448 1-1 1h-0.010c-0.552 0-1-0.448-1-1z"></path>
</svg>
